flaticon/household/table-2.svg

<svg xmlns="http://www.w3.org/2000/svg" width="32" height="32" viewBox="0 0 24 24">
    <path d="M 24 13.855469 L 24 9.601562 L 23.492188 9.601562 C 21.933594 9.601562 20.519531 10.210938 19.46875 11.199219 L 18.800781 11.199219 L 18.800781 10.800781 L 19.199219 10.800781 C 19.421875 10.800781 19.601562 10.621094 19.601562 10.398438 C 19.601562 10.179688 19.421875 10 19.199219 10 L 15.199219 10 C 14.980469 10 14.800781 10.179688 14.800781 10.398438 C 14.800781 10.621094 14.980469 10.800781 15.199219 10.800781 L 15.601562 10.800781 L 15.601562 11.199219 L 13.726562 11.199219 C 13.898438 10.84375 14 10.335938 14 9.601562 C 14 8.847656 13.898438 8.59375 13.71875 8.207031 C 13.671875 8.109375 13.621094 7.996094 13.5625 7.851562 L 13.460938 7.601562 L 12.398438 7.601562 L 12.398438 6.566406 L 13.082031 5.882812 C 13.238281 5.726562 13.238281 5.472656 13.082031 5.316406 C 12.925781 5.160156 12.671875 5.160156 12.515625 5.316406 L 12.398438 5.433594 L 12.398438 4.742188 C 13.089844 4.5625 13.601562 3.945312 13.601562 3.199219 L 13.601562 2.398438 L 12.398438 2.398438 L 12.398438 1.601562 L 10.398438 1.601562 L 10.398438 3.601562 C 10.398438 4.34375 10.910156 4.964844 11.601562 5.144531 L 11.601562 6.234375 L 11.484375 6.117188 C 11.328125 5.960938 11.074219 5.960938 10.917969 6.117188 C 10.761719 6.273438 10.761719 6.527344 10.917969 6.683594 L 11.601562 7.367188 L 11.601562 7.601562 L 10.539062 7.601562 L 10.4375 7.851562 C 10.378906 7.996094 10.328125 8.109375 10.28125 8.207031 C 10.101562 8.59375 10 8.847656 10 9.601562 C 10 10.335938 10.101562 10.84375 10.273438 11.199219 L 8.398438 11.199219 L 8.398438 10.800781 L 8.800781 10.800781 C 9.019531 10.800781 9.199219 10.621094 9.199219 10.398438 C 9.199219 10.179688 9.019531 10 8.800781 10 L 4.800781 10 C 4.578125 10 4.398438 10.179688 4.398438 10.398438 C 4.398438 10.621094 4.578125 10.800781 4.800781 10.800781 L 5.199219 10.800781 L 5.199219 11.199219 L 4.53125 11.199219 C 3.480469 10.210938 2.066406 9.601562 0.507812 9.601562 L 0 9.601562 L 0 13.855469 C 0 14.949219 0.832031 15.847656 1.894531 15.972656 L 0.410156 21.902344 C 0.359375 22.117188 0.488281 22.335938 0.703125 22.386719 C 0.734375 22.394531 0.769531 22.398438 0.800781 22.398438 C 0.980469 22.398438 1.140625 22.277344 1.1875 22.097656 L 2.621094 16.367188 L 4.417969 22.121094 C 4.472656 22.289062 4.628906 22.398438 4.800781 22.398438 C 4.839844 22.398438 4.878906 22.394531 4.917969 22.382812 C 5.128906 22.316406 5.246094 22.089844 5.183594 21.878906 L 3.34375 16 L 6.398438 16 L 6.398438 15.492188 C 6.398438 14.828125 6.285156 14.195312 6.082031 13.601562 L 9.601562 13.601562 L 9.601562 15.199219 L 10.800781 15.199219 L 10.800781 18.398438 C 10.800781 20.164062 9.363281 21.601562 7.601562 21.601562 L 6 21.601562 C 5.777344 21.601562 5.601562 21.777344 5.601562 22 C 5.601562 22.222656 5.777344 22.398438 6 22.398438 L 18 22.398438 C 18.222656 22.398438 18.398438 22.222656 18.398438 22 C 18.398438 21.777344 18.222656 21.601562 18 21.601562 L 16.398438 21.601562 C 14.636719 21.601562 13.199219 20.164062 13.199219 18.398438 L 13.199219 15.199219 L 14.398438 15.199219 L 14.398438 13.601562 L 17.917969 13.601562 C 17.714844 14.195312 17.601562 14.828125 17.601562 15.492188 L 17.601562 16 L 20.289062 16 L 18.8125 21.902344 C 18.757812 22.117188 18.890625 22.335938 19.101562 22.386719 C 19.136719 22.394531 19.167969 22.398438 19.199219 22.398438 C 19.378906 22.398438 19.542969 22.277344 19.589844 22.097656 L 21.019531 16.367188 L 22.816406 22.121094 C 22.871094 22.289062 23.03125 22.398438 23.199219 22.398438 C 23.238281 22.398438 23.28125 22.394531 23.320312 22.382812 C 23.53125 22.316406 23.648438 22.089844 23.582031 21.878906 L 21.742188 16 L 21.855469 16 C 23.039062 16 24 15.039062 24 13.855469 Z M 16.398438 10.800781 L 18 10.800781 L 18 11.199219 L 16.398438 11.199219 Z M 12.800781 3.199219 C 12.800781 3.496094 12.640625 3.753906 12.398438 3.890625 L 12.398438 3.199219 Z M 11.199219 3.601562 L 11.199219 2.398438 L 11.601562 2.398438 L 11.601562 4.292969 C 11.359375 4.15625 11.199219 3.894531 11.199219 3.601562 Z M 10.800781 9.601562 C 10.800781 8.988281 10.863281 8.851562 11.007812 8.546875 C 11.027344 8.5 11.050781 8.453125 11.074219 8.398438 L 12.925781 8.398438 C 12.949219 8.453125 12.972656 8.5 12.992188 8.546875 C 13.136719 8.851562 13.199219 8.988281 13.199219 9.601562 C 13.199219 11.199219 12.824219 11.199219 12 11.199219 C 11.175781 11.199219 10.800781 11.199219 10.800781 9.601562 Z M 6 10.800781 L 7.601562 10.800781 L 7.601562 11.199219 L 6 11.199219 Z M 2.144531 15.199219 C 1.402344 15.199219 0.800781 14.597656 0.800781 13.855469 L 0.800781 10.410156 C 2.40625 10.5 3.8125 11.335938 4.679688 12.578125 C 4.851562 12.824219 5.003906 13.089844 5.132812 13.367188 L 5.175781 13.460938 C 5.410156 14 5.558594 14.585938 5.589844 15.199219 Z M 13.601562 14.398438 L 12.398438 14.398438 L 12.398438 18.398438 C 12.398438 19.707031 13.03125 20.871094 14.003906 21.601562 L 9.996094 21.601562 C 10.96875 20.871094 11.601562 19.707031 11.601562 18.398438 L 11.601562 14.398438 L 10.398438 14.398438 L 10.398438 13.601562 L 13.601562 13.601562 Z M 18.253906 12.800781 L 5.746094 12.800781 C 5.742188 12.792969 5.738281 12.789062 5.734375 12.78125 C 5.6875 12.691406 5.632812 12.597656 5.582031 12.507812 C 5.539062 12.441406 5.5 12.371094 5.457031 12.304688 C 5.414062 12.238281 5.371094 12.175781 5.328125 12.113281 C 5.300781 12.074219 5.277344 12.035156 5.25 12 L 18.746094 12 C 18.722656 12.035156 18.699219 12.074219 18.671875 12.113281 C 18.628906 12.175781 18.585938 12.238281 18.542969 12.304688 C 18.5 12.371094 18.460938 12.441406 18.417969 12.507812 C 18.363281 12.597656 18.3125 12.691406 18.265625 12.78125 C 18.261719 12.789062 18.257812 12.792969 18.253906 12.800781 Z M 18.824219 13.460938 L 18.867188 13.367188 C 18.996094 13.089844 19.148438 12.824219 19.320312 12.578125 C 20.1875 11.335938 21.59375 10.5 23.199219 10.410156 L 23.199219 13.855469 C 23.199219 14.597656 22.597656 15.199219 21.855469 15.199219 L 18.40625 15.199219 C 18.441406 14.585938 18.589844 14 18.824219 13.460938 Z M 18.824219 13.460938"/>
</svg>

<svg xmlns="http://www.w3.org/2000/svg" width="32" height="32" viewBox="0 0 24 24">
    <path d="M24 13.855V9.602h-.508c-1.558 0-2.972.609-4.023 1.597H18.8v-.398h.398a.401.401 0 0 0 0-.8l-4-.001a.4.4 0 0 0 0 .8h.403v.4h-1.875c.171-.356.273-.864.273-1.598 0-.754-.102-1.008-.281-1.395a6.127 6.127 0 0 1-.156-.355l-.102-.25h-1.063V6.566l.684-.683a.4.4 0 0 0-.566-.567l-.118.118v-.692A1.596 1.596 0 0 0 13.602 3.2v-.8h-1.204v-.797h-2v2c0 .742.512 1.363 1.204 1.543v1.09l-.118-.118a.4.4 0 0 0-.566.567l.684.683v.235h-1.063l-.101.25c-.06.144-.11.257-.157.355-.18.387-.281.64-.281 1.395 0 .734.102 1.242.273 1.597H8.398v-.398h.403a.401.401 0 0 0 0-.801h-4a.401.401 0 1 0 0 .8h.398v.4h-.668A5.854 5.854 0 0 0 .508 9.601H0v4.253a2.14 2.14 0 0 0 1.895 2.118L.41 21.903a.4.4 0 0 0 .778.195l1.433-5.73 1.797 5.753a.402.402 0 0 0 .5.262.408.408 0 0 0 .266-.504L3.344 16h3.054v-.508c0-.664-.113-1.297-.316-1.89h3.52v1.597H10.8v3.2a3.207 3.207 0 0 1-3.2 3.203H6a.395.395 0 0 0-.398.398c0 .223.175.398.398.398h12a.395.395 0 0 0 .398-.398.395.395 0 0 0-.398-.398h-1.602a3.207 3.207 0 0 1-3.199-3.204V15.2h1.2v-1.597h3.519a5.818 5.818 0 0 0-.316 1.89V16h2.687l-1.477 5.902a.398.398 0 0 0 .387.496c.18 0 .344-.12.39-.3l1.43-5.73 1.797 5.753a.406.406 0 0 0 .383.277.43.43 0 0 0 .121-.015.402.402 0 0 0 .262-.504L21.742 16h.113C23.04 16 24 15.04 24 13.855zm-7.602-3.054H18v.398h-1.602zm-3.597-7.602a.79.79 0 0 1-.403.692v-.692zm-1.602.403V2.398h.403v1.895a.795.795 0 0 1-.403-.691zm-.398 6c0-.614.062-.75.207-1.055.02-.047.043-.094.066-.149h1.852c.023.055.047.102.066.149.145.305.207.441.207 1.055 0 1.597-.375 1.597-1.199 1.597-.824 0-1.2 0-1.2-1.597zM6 10.8h1.602v.398H6zm-3.855 4.398A1.344 1.344 0 0 1 .8 13.855V10.41a5.073 5.073 0 0 1 3.879 2.168c.172.246.324.512.453.79l.043.093c.234.539.383 1.125.414 1.738zm11.457-.8h-1.204v4c0 1.308.633 2.472 1.606 3.203H9.996a4.002 4.002 0 0 0 1.606-3.204v-4h-1.204v-.796h3.204zm4.652-1.598H5.746l-.012-.02c-.046-.09-.101-.183-.152-.273-.043-.067-.082-.137-.125-.203a8.133 8.133 0 0 0-.129-.192c-.027-.039-.05-.078-.078-.113h13.496c-.023.035-.047.074-.074.113a8.133 8.133 0 0 0-.129.192c-.043.066-.082.136-.125.203-.055.09-.105.183-.152.273l-.012.02zm.57.66l.043-.094c.13-.277.281-.543.453-.789a5.073 5.073 0 0 1 3.88-2.168v3.445c0 .743-.602 1.344-1.345 1.344h-3.449c.035-.613.184-1.199.418-1.738zm0 0"/>
</svg>
